src/icons/hds/some/vimeo.svg

<svg xmlns="http://www.w3.org/2000/svg" width="24" height="24" viewBox="0 0 24 24">
  <g fill="none" fill-rule="evenodd">
    <rect width="24" height="24"/>
    <path fill="currentColor" d="M19.0714286,3 L4.92857143,3 C3.86383929,3 3,3.86383929 3,4.92857143 L3,19.0714286 C3,20.1361607 3.86383929,21 4.92857143,21 L19.0714286,21 C20.1361607,21 21,20.1361607 21,19.0714286 L21,4.92857143 C21,3.86383929 20.1361607,3 19.0714286,3 Z M18.4205357,9.01071429 C18.3642857,10.2602679 17.4883929,11.9758929 15.796875,14.1495536 C14.0491071,16.4196429 12.5705357,17.5566964 11.3611607,17.5566964 C10.6098214,17.5566964 9.97901786,16.865625 9.46071429,15.4834821 C8.44821429,11.775 8.01830357,9.60133929 7.18258929,9.60133929 C7.08616071,9.60133929 6.74866071,9.80223214 6.17410714,10.2080357 L5.57142857,9.42857143 C7.05401786,8.12678571 8.46830357,6.68035714 9.35223214,6.6 C10.3526786,6.50357143 10.9674107,7.18660714 11.2004464,8.653125 C12.0241071,13.8602679 12.3897321,14.6477679 13.884375,12.2892857 C14.4227679,11.4375 14.7120536,10.7946429 14.7482143,10.3486607 C14.8848214,9.03080357 13.7196429,9.11919643 12.9321429,9.45669643 C13.5629464,7.3875 14.7723214,6.38303571 16.5522321,6.43928571 C17.8741071,6.47946429 18.496875,7.33928571 18.4205357,9.01071429 Z"/>
  </g>
</svg>

<svg viewBox="0 0 24 24" role="img" xmlns="http://www.w3.org/2000/svg"><g fill="none" fill-rule="evenodd"><path d="M0 0h24v24H0z"/><path d="M19.071 3H4.93A1.93 1.93 0 003 4.929V19.07A1.93 1.93 0 004.929 21H19.07A1.93 1.93 0 0021 19.071V4.93A1.93 1.93 0 0019.071 3zm-.65 6.01c-.057 1.25-.933 2.966-2.624 5.14-1.748 2.27-3.226 3.407-4.436 3.407-.751 0-1.382-.691-1.9-2.074-1.013-3.708-1.443-5.882-2.278-5.882-.097 0-.434.201-1.009.607l-.603-.78C7.054 8.128 8.468 6.68 9.352 6.6c1-.096 1.615.587 1.848 2.053.824 5.207 1.19 5.995 2.684 3.636.539-.851.828-1.494.864-1.94.137-1.318-1.028-1.23-1.816-.892.63-2.07 1.84-3.074 3.62-3.018 1.322.04 1.945.9 1.869 2.572z" fill="currentColor"/></g></svg>
